X: 17629
T: Hole In The Boat, The
R: jig
M: 6/8
K: Edorian
D3 D3|E2D DEG|Ace dcA|BcA GEA|
EDA D3|E2D DEG|Ace dcG|AcA GEA:|
D3 A3|e2d dcA|Cde dCG|BcA GEA|
EDA D3|E2D DEG|Ace dcG|AcA GEA:|

